X: 03014
T: The BROKEN SWORD
C: Bob McQuillen 26 Apr 77
B: Bob's Note Book 03 #14
%R: jig
%D:1978
Z: 2020 John Chambers <jc:trillian.mit.edu>
M: 6/8
L: 1/8
K: Am
A \
| EAA cBc | dBG GAB | Ace dcd | efg g2A |\
| EAA cBc | dBG GAB | Ace dcd | eAA A2 :|
|: e \
| a3 a3 | gec d2e/d/ | cAA eAA | cde deg |\
| a3 a3 | gec d2e/d/ | cAA eAA | E^F^G A2 :|
%%begintext align
%% For Larry Jennings and Co.,
%% whose marvelous sword dance
%% at the New England Folk Festival
%% inspired this tune.
%%endtext

%%sep 1 1 500

%%sep 1 1 500

